ui/StatusQ/src/assets/img/icons/tiny/tiny-exclamation.svg

<svg fill="none" height="8" viewBox="0 0 2 8" width="2" xmlns="http://www.w3.org/2000/svg"><path clip-rule="evenodd" d="m1.78125 6.65625c0 .43147-.34978.78125-.78125.78125-.431472 0-.78125-.34978-.78125-.78125s.349778-.78125.78125-.78125c.43147 0 .78125.34978.78125.78125zm-.78125-5.78125c-.345178 0-.625.27982-.625.625v2.8125c0 .34518.279822.625.625.625.34518 0 .625-.27982.625-.625v-2.8125c0-.34518-.27982-.625-.625-.625z" fill="#fff" fill-rule="evenodd"/></svg>

<svg width="2" height="8" viewBox="0 0 2 8" fill="none" xmlns="http://www.w3.org/2000/svg">
<path fill-rule="evenodd" clip-rule="evenodd" d="M1.78125 6.65625C1.78125 7.08772 1.43147 7.4375 1 7.4375C0.568528 7.4375 0.21875 7.08772 0.21875 6.65625C0.21875 6.22478 0.568528 5.875 1 5.875C1.43147 5.875 1.78125 6.22478 1.78125 6.65625ZM1 0.875C0.654822 0.875 0.375 1.15482 0.375 1.5V4.3125C0.375 4.65768 0.654822 4.9375 1 4.9375C1.34518 4.9375 1.625 4.65768 1.625 4.3125V1.5C1.625 1.15482 1.34518 0.875 1 0.875Z" fill="white"/>
</svg>
